build/images/content/for/img_1.svg

<svg width="120" height="120" viewBox="0 0 120 120" fill="none" xmlns="http://www.w3.org/2000/svg">
<path d="M78.75 106.875H101.25V116.25H78.75V106.875Z" fill="#00BBD3"/>
<path d="M18.75 106.875H41.25V116.25H18.75V106.875Z" fill="#00BBD3"/>
<path d="M101.25 18.75L78.75 11.25L99.375 3.75H101.25V18.75Z" fill="#00BBD3"/>
<path d="M111.562 65.625C107.944 65.625 105 68.5688 105 72.1875V85.3706C105 88.1512 102.924 90.5456 100.17 90.9394L98.9925 91.1081C100.403 89.2275 101.25 86.9006 101.25 84.375C101.25 78.1706 96.2044 73.125 90 73.125C83.7956 73.125 78.75 78.1706 78.75 84.375C78.75 86.9006 79.5975 89.2275 81.0075 91.1081L79.83 90.9394C77.0756 90.5456 75 88.1512 75 85.3706V72.1875C75 68.5688 72.0562 65.625 68.4375 65.625C64.8188 65.625 61.875 68.5688 61.875 72.1875V86.9888C61.875 95.0625 67.6294 102.032 75.5588 103.56L76.875 103.813V118.125H103.125V103.813L104.441 103.56C112.371 102.032 118.125 95.0625 118.125 86.9888V72.1875C118.125 68.5688 115.181 65.625 111.562 65.625ZM90 76.875C94.1362 76.875 97.5 80.2387 97.5 84.375C97.5 88.5112 94.1362 91.875 90 91.875C85.8638 91.875 82.5 88.5112 82.5 84.375C82.5 80.2387 85.8638 76.875 90 76.875ZM114.375 86.9888C114.375 93.2681 109.898 98.6888 103.731 99.8775L99.375 100.716V114.375H80.625V100.716L76.2694 99.8756C70.1025 98.6887 65.625 93.2681 65.625 86.9888V72.1875C65.625 70.6369 66.8869 69.375 68.4375 69.375C69.9881 69.375 71.25 70.6369 71.25 72.1875V85.3706C71.25 90.0056 74.7112 93.9956 79.2994 94.6519L85.9838 95.6063L89.8069 95.6156C89.8725 95.6156 89.9344 95.625 90 95.625H91.875V95.6194L93.75 95.625L100.701 94.65C105.289 93.9937 108.75 90.0037 108.75 85.3687V72.1875C108.75 70.6369 110.012 69.375 111.562 69.375C113.113 69.375 114.375 70.6369 114.375 72.1875V86.9888Z" fill="#043A52"/>
<path d="M103.125 39.375V3.75H99.375V39.375H76.2713L56.085 53.91C55.7456 52.0538 54.8681 50.3419 53.505 48.9787L48.75 44.2238V33.4088C55.7231 31.7513 61.5619 26.9813 64.5637 20.4L68.79 11.1281C69.1781 10.2731 69.375 9.36562 69.375 8.4C69.375 4.80375 66.4463 1.875 62.7563 1.875C60.3375 1.875 58.1644 3.21937 57.0844 5.38125L53.0925 13.3688C51.7163 16.1213 49.4813 18.225 46.8019 19.4438C48.03 17.6419 48.75 15.4669 48.75 13.125C48.75 6.92062 43.7044 1.875 37.5 1.875C31.2956 1.875 26.25 6.92062 26.25 13.125C26.25 16.0425 27.375 18.6956 29.2031 20.6963C23.0606 21.0581 17.5087 24.7463 14.8875 30.3638L6.23063 48.915C5.83312 49.7625 5.625 50.7038 5.625 51.66C5.625 55.2244 8.52563 58.125 12.1838 58.125C14.6269 58.125 16.8656 56.6925 17.8875 54.4744L26.25 36.3506V73.7812C21.8869 75.33 18.75 79.4869 18.75 84.375C18.75 86.9006 19.5975 89.2275 21.0075 91.1081L19.83 90.9394C17.0756 90.5456 15 88.1512 15 85.3706V72.1875C15 68.5687 12.0562 65.625 8.4375 65.625C4.81875 65.625 1.875 68.5687 1.875 72.1875V86.9888C1.875 95.0625 7.62938 102.032 15.5588 103.56L16.875 103.813V118.125H43.125V103.813L44.4412 103.56C52.3706 102.032 58.125 95.0625 58.125 86.9888V72.1875C58.125 68.5687 55.1813 65.625 51.5625 65.625C47.9437 65.625 45 68.5687 45 72.1875V85.3706C45 88.1512 42.9244 90.5456 40.17 90.9394L38.9925 91.1081C40.4025 89.2275 41.25 86.9006 41.25 84.375C41.25 79.7719 38.4675 75.81 34.5 74.07L77.4787 43.125H118.125V39.375H103.125ZM37.5 5.625C41.6362 5.625 45 8.98875 45 13.125C45 17.2613 41.6362 20.625 37.5 20.625C33.3638 20.625 30 17.2613 30 13.125C30 8.98875 33.3638 5.625 37.5 5.625ZM25.05 30L14.4825 52.905C14.07 53.7975 13.1663 54.375 12.09 54.375C10.5919 54.375 9.375 53.1581 9.375 51.6394C9.375 51.2475 9.46313 50.8538 9.62813 50.4994L18.285 31.95C20.4338 27.3488 25.1006 24.375 30.1781 24.375H41.355C47.7881 24.375 53.5706 20.7994 56.4469 15.045L60.4388 7.0575C60.8794 6.17438 61.7663 5.625 62.85 5.625C64.38 5.625 65.625 6.87 65.625 8.42812C65.625 8.82562 65.5406 9.21 65.3756 9.57375L61.1494 18.8456C58.4456 24.7762 52.9931 28.9556 46.5675 30.0262L45 30.2869L44.9981 45.7762L50.8519 51.63C51.9 52.6763 52.5 54.1256 52.5 55.6069V56.49L46.875 60.54V55.4738L40.1512 48.75H35.625V68.64L30 72.69V30H25.05ZM43.125 63.24L39.375 65.94V53.2762L43.125 57.0262V63.24ZM40.7006 94.65C45.2887 93.9938 48.75 90.0037 48.75 85.3687V72.1875C48.75 70.6369 50.0119 69.375 51.5625 69.375C53.1131 69.375 54.375 70.6369 54.375 72.1875V86.9888C54.375 93.2681 49.8975 98.6888 43.7306 99.8775L39.375 100.716V114.375H20.625V100.716L16.2694 99.8756C10.1025 98.6887 5.625 93.2681 5.625 86.9888V72.1875C5.625 70.6369 6.88688 69.375 8.4375 69.375C9.98812 69.375 11.25 70.6369 11.25 72.1875V85.3706C11.25 90.0056 14.7113 93.9956 19.2994 94.6519L25.9837 95.6063L29.8069 95.6156C29.8725 95.6156 29.9344 95.625 30 95.625H31.875V95.6194L33.75 95.625L40.7006 94.65ZM37.5 84.375C37.5 88.5113 34.1362 91.875 30 91.875C25.8638 91.875 22.5 88.5113 22.5 84.375C22.5 80.2387 25.8638 76.875 30 76.875C34.1362 76.875 37.5 80.2387 37.5 84.375Z" fill="#043A52"/>
<path d="M80.625 46.875H84.375V50.625H80.625V46.875Z" fill="#043A52"/>
<path d="M88.125 46.875H91.875V50.625H88.125V46.875Z" fill="#043A52"/>
<path d="M95.625 46.875H99.375V50.625H95.625V46.875Z" fill="#043A52"/>
</svg>

<svg width="120" height="120" fill="none" xmlns="http://www.w3.org/2000/svg"><path d="M78.75 106.875h22.5v9.375h-22.5v-9.375zm-60 0h22.5v9.375h-22.5v-9.375zm82.5-88.125l-22.5-7.5 20.625-7.5h1.875v15z" fill="#00BBD3"/><path d="M111.562 65.625A6.57 6.57 0 00105 72.188V85.37c0 2.78-2.076 5.175-4.83 5.568l-1.177.17a11.185 11.185 0 002.257-6.734c0-6.204-5.046-11.25-11.25-11.25s-11.25 5.046-11.25 11.25c0 2.526.847 4.853 2.257 6.733l-1.177-.169C77.076 90.545 75 88.15 75 85.37V72.188a6.57 6.57 0 00-6.563-6.563 6.57 6.57 0 00-6.562 6.563v14.8c0 8.075 5.754 15.044 13.684 16.572l1.316.253v14.312h26.25v-14.312l1.316-.253c7.93-1.528 13.684-8.498 13.684-16.571V72.187a6.57 6.57 0 00-6.563-6.562zM90 76.875c4.136 0 7.5 3.364 7.5 7.5s-3.364 7.5-7.5 7.5-7.5-3.364-7.5-7.5 3.364-7.5 7.5-7.5zm24.375 10.114c0 6.28-4.477 11.7-10.644 12.888l-4.356.839v13.659h-18.75v-13.659l-4.356-.84c-6.166-1.187-10.644-6.608-10.644-12.887V72.187a2.816 2.816 0 012.813-2.812 2.816 2.816 0 012.812 2.813V85.37c0 4.635 3.461 8.625 8.05 9.28l6.684.955 3.823.01c.066 0 .127.009.193.009h1.875v-.006l1.875.006 6.951-.975c4.588-.656 8.049-4.646 8.049-9.281v-13.18a2.816 2.816 0 012.812-2.813 2.816 2.816 0 012.813 2.813v14.8z" fill="#043A52"/><path d="M103.125 39.375V3.75h-3.75v35.625H76.271L56.085 53.91a9.305 9.305 0 00-2.58-4.931l-4.755-4.755V33.409A23.282 23.282 0 0064.564 20.4l4.226-9.272a6.52 6.52 0 00.585-2.728c0-3.596-2.929-6.525-6.619-6.525a6.305 6.305 0 00-5.672 3.506l-3.992 7.988a13.067 13.067 0 01-6.29 6.075 11.183 11.183 0 001.948-6.319c0-6.204-5.046-11.25-11.25-11.25s-11.25 5.046-11.25 11.25a11.19 11.19 0 002.953 7.571c-6.142.362-11.694 4.05-14.316 9.668L6.231 48.915a6.476 6.476 0 00-.606 2.745c0 3.564 2.9 6.465 6.559 6.465a6.297 6.297 0 005.704-3.65L26.25 36.35v37.43c-4.363 1.549-7.5 5.706-7.5 10.594 0 2.526.848 4.853 2.258 6.733l-1.178-.169C17.076 90.545 15 88.15 15 85.37V72.188a6.57 6.57 0 00-6.563-6.563 6.57 6.57 0 00-6.562 6.563v14.8c0 8.075 5.754 15.044 13.684 16.572l1.316.253v14.312h26.25v-14.312l1.316-.253c7.93-1.528 13.684-8.498 13.684-16.571V72.187a6.57 6.57 0 00-6.563-6.562A6.57 6.57 0 0045 72.188V85.37c0 2.78-2.076 5.175-4.83 5.568l-1.178.17a11.188 11.188 0 002.258-6.734c0-4.603-2.782-8.565-6.75-10.305l42.979-30.945h40.646v-3.75h-15zM37.5 5.625c4.136 0 7.5 3.364 7.5 7.5s-3.364 7.5-7.5 7.5-7.5-3.364-7.5-7.5 3.364-7.5 7.5-7.5zM25.05 30L14.482 52.905c-.412.892-1.316 1.47-2.392 1.47a2.721 2.721 0 01-2.715-2.736c0-.392.088-.785.253-1.14l8.657-18.549a13.174 13.174 0 0111.893-7.575h11.177c6.433 0 12.216-3.576 15.092-9.33l3.992-7.987c.44-.884 1.327-1.433 2.411-1.433a2.784 2.784 0 012.775 2.803c0 .398-.084.782-.25 1.146l-4.226 9.272a19.533 19.533 0 01-14.581 11.18l-1.568.26-.002 15.49 5.854 5.854a5.656 5.656 0 011.648 3.977v.883l-5.625 4.05v-5.066l-6.724-6.724h-4.526v19.89L30 72.69V30h-4.95zm18.075 33.24l-3.75 2.7V53.276l3.75 3.75v6.214zm-2.424 31.41c4.588-.656 8.049-4.646 8.049-9.281V72.188a2.816 2.816 0 012.813-2.813 2.816 2.816 0 012.812 2.813v14.8c0 6.28-4.477 11.7-10.644 12.89l-4.356.838v13.659h-18.75v-13.659l-4.356-.84c-6.166-1.187-10.644-6.608-10.644-12.887V72.187a2.816 2.816 0 012.813-2.812 2.816 2.816 0 012.812 2.813V85.37c0 4.635 3.461 8.625 8.05 9.28l6.684.955 3.823.01c.066 0 .127.009.193.009h1.875v-.006l1.875.006 6.95-.975zM37.5 84.375c0 4.136-3.364 7.5-7.5 7.5s-7.5-3.364-7.5-7.5 3.364-7.5 7.5-7.5 7.5 3.364 7.5 7.5z" fill="#043A52"/><path d="M80.625 46.875h3.75v3.75h-3.75v-3.75zm7.5 0h3.75v3.75h-3.75v-3.75zm7.5 0h3.75v3.75h-3.75v-3.75z" fill="#043A52"/></svg>
